X:1
T:Lebanon, 88.88.88
T:Lebanon, 88.88.88
T:Charles Darnton (1836–1933)
T:Public Domain Courtesy of the Cyber Hymnal™
C:Charles Darnton (1836–1933)
Z:Public Domain
Z:Courtesy of the Cyber Hymnal™
%%score ( 1 2 ) ( 3 4 )
L:1/8
Q:1/4=107
M:4/4
K:F
V:1 treble 
V:2 treble 
V:3 bass 
V:4 bass 
V:1
 F2 | [FA]2 [EG]2 [FA]2 [Fc]2 | [Ge]3 [Ed] [Fc]2 [CA]2 | [DG]2 [Fd]2 [Fc]2 [EB]2 | %4
 [CB]2 B2 [FA]2 [FA]2 | [Ad]2 [G=B]2 [Gc]2 G2 | A3 z G [DF]2 [=CA]2 | [D=B]2 [Gc]2 [Gf]3 [FB] | %8
 [Fd]2 [Fd]2 [Ec]2 [Ec]2 | [EB]2 d2 [Fc]3 A x2 | G2 B2 A2 [FA]2 | [DA]2 [DG]2 [CE]2 [A,F]2 | %12
 F6 z2 F2 | [CF]6 |] %14
V:2
 F2 | x8 | x8 | x8 | x2 (DE) x4 | x6 G2 | E2 ^C2 x5 | x8 | x8 | x2 d2 x A x4 | E6 x2 | x8 | %12
 D4 _D4 x2 | x6 |] %14
V:3
 [F,A,]2 | [F,C]2 [C,C]2 [F,C]2 [F,A,]2 | [C,B,]3 [C,B,] [F,A,]2 [F,A,]2 | %3
 [B,,B,]2 [B,,B,]2 [C,A,]2 [C,G,]2 | [F,G,]2 [F,G,]2 [F,A,]2 [F,C]2 | [D,F]2 [G,D]2 [E,C]2 [B,D]2 | %6
 ^C2 z A,, [D,A,]2 [F,A,]2 x | [F,G,]2 [E,G,]2 [D,=B,]3 G, | [C,G,]2 (A,=B,) [C,C]2 [C,G,C]2 | %9
 B,2 D2 [A,C]3 A,3 | [C,G,]2 B,2 [^C,A,]2 [D,A,]2 | [B,,B,]2 [B,,B,]2 [C,G,]2 [D,F,]2 | %12
 F,6 z2 G,2 | [F,,A,]6 |] %14
V:4
 x2 | x8 | x8 | x8 | x8 | x8 | A,3 A,2 x4 | x7 G, | x2 C,2 x4 | C,8 A, x | x2 B,2 x4 | x8 | %12
 B,,4 B,,4 x2 | x6 |] %14

